X:1
T:New Five Cent Piece | 
C: arr: Carthy Sisco
L:1/4
M:4/4
I:linebreak $
K:D
V:1 treble
V:1
|: "D"A f f e |"G" d e/d/ B d/B/|"D" A d f d |"A" e3/2 f/ e (A |"D" A) f f e |"G" d e/d/ B d/B/ |$
 "A"A F E F/E/ |"D" D3/2 E/ D d/B/ :: "D" A F F d/B/ | A F F d/B/ | A F G F |"A"E3/ F/ E d/B/ |$
"D" A F F A |"G" B/A/ B/c/ d c/B/ |"A"  A/B/ c/d/ e/g/ f/e/ |"D" d d/d/ d d/B/ :|
